logos/mailgun.svg

<?xml version="1.0" encoding="UTF-8"?>
<svg width="512px" height="108px" viewBox="0 0 512 108" version="1.1" xmlns="http://www.w3.org/2000/svg" preserveAspectRatio="xMidYMid">
    <title>Mailgun</title>
    <g>
        <path d="M512,80.8085784 L501.247824,80.8085784 L501.247824,52.7095576 C501.284579,49.7790211 500.629687,46.881124 499.336326,44.2511789 C498.124683,41.7472838 496.258924,39.6173465 493.936344,38.0865978 C490.562382,35.8337123 486.355247,35.2145288 482.475273,36.3998191 C478.595299,37.5851095 475.452403,40.4496485 473.913402,44.2033915 C472.699516,46.8722479 472.095505,49.7780328 472.145267,52.7095576 L472.145267,80.8085784 L461.39309,80.8085784 L461.39309,26.9521219 L472.145267,26.9521219 L472.145267,34.4547516 C474.056765,31.5875046 476.39835,29.3892819 479.074447,27.812296 C481.802393,26.2287449 484.904291,25.4037721 488.058487,25.4225975 C492.741658,25.4225975 496.899166,26.6653972 500.483224,29.0547697 C504.115071,31.4919297 506.93453,34.7892638 508.941603,38.8989845 C510.900889,43.0087052 511.952213,47.548513 512,52.4706204 L512,80.8085784 L512,80.8085784 Z M397.310119,26.9521219 L408.062296,26.9521219 L408.062296,54.9555678 C408.062296,58.0139646 408.683533,60.8812116 409.973794,63.4139465 C411.264055,65.9944688 413.079978,68.0493291 415.325988,69.5307401 C419.865153,72.5729443 425.792083,72.5729443 430.331248,69.5307401 C432.481683,68.0493291 434.154244,65.9944688 435.396717,63.4139465 C436.591404,60.8812116 437.164853,58.0139646 437.164853,54.9555678 L437.164853,26.9521219 L447.917029,26.9521219 L447.917029,80.8085784 L437.21264,80.8085784 L437.21264,73.2581612 C435.301142,76.1254082 432.91177,78.2758435 430.235673,79.9006168 C427.511788,81.4776027 424.548966,82.2899893 421.299419,82.2899893 C416.616249,82.2899893 412.458741,81.0475156 408.874682,78.6103556 C405.217245,76.1538152 402.294126,72.7517674 400.416304,68.7661409 C398.383098,64.5149649 397.337557,59.8590429 397.357907,55.1467176 L397.357907,26.9999094 L397.310119,26.9521219 Z M373.894269,62.7927096 C372.6665,65.4594697 370.73311,67.7398778 368.303137,69.3873777 C363.220043,72.5819508 356.756199,72.5819508 351.673104,69.3873777 C346.430446,65.965095 343.281569,60.1171801 343.310106,53.8564564 C343.310106,50.6069098 344.027112,47.6440879 345.508523,44.8724158 C346.942147,42.1007437 348.997007,39.9025209 351.57753,38.3255351 C356.672089,35.1108998 363.16079,35.1108998 368.25535,38.3255351 C370.644722,39.9025209 372.55622,42.1485311 373.894269,44.8724158 C375.232317,47.5963004 375.901342,50.6069098 375.901342,53.8564564 C375.901342,57.106003 375.232317,60.0688249 373.894269,62.8404971 L373.894269,62.7927096 Z M376.618153,26.9521219 L376.618153,34.8848387 C374.874084,32.0514576 372.462134,29.688731 369.593398,28.0034458 C366.65918,26.3185443 363.323392,25.4598268 359.940333,25.5184984 C354.922651,25.5184984 350.287268,26.7609721 346.081973,29.3414944 C337.441787,34.4771448 332.168531,43.8053528 332.223185,53.8564564 C332.178228,63.9050347 337.448951,73.2287617 346.081973,78.3714184 C350.287268,80.9041533 354.922651,82.1944144 359.940333,82.1944144 C363.524392,82.1944144 366.726151,81.3820278 369.593398,79.709467 C372.457416,78.018024 374.868024,75.656612 376.618153,72.8280742 L376.618153,82.2422019 C376.618153,85.013874 375.757979,87.4988214 374.133206,89.7448315 C372.460645,91.9908417 370.31021,93.7589774 367.634113,95.0014511 C364.943857,96.2679191 362.005813,96.9208177 359.032372,96.9129491 C353.572667,96.6979449 348.515126,93.9841423 345.317374,89.5536817 L333.227149,89.5536817 C335.984314,96.5911967 341.387804,102.269149 348.280195,105.371328 C351.720892,106.948314 355.304951,107.7607 359.032372,107.7607 C363.954479,107.7607 368.589862,106.613801 372.93852,104.415579 C377.23939,102.217356 380.775662,99.1589592 383.403971,95.2403883 C386.032281,91.3696049 387.37033,87.0209469 387.37033,82.2422019 L387.37033,26.9999094 L376.618153,26.9999094 L376.618153,26.9521219 Z M313.204207,80.7607909 L323.908596,80.7607909 L323.908596,3.55271368e-14 L313.204207,3.55271368e-14 L313.204207,80.7607909 Z M300.110446,13.7149982 C300.308695,15.8799233 299.265681,17.9708018 297.41691,19.1145904 C295.56814,20.2583791 293.23155,20.2583791 291.38278,19.1145904 C289.53401,17.9708018 288.490995,15.8799233 288.689245,13.7149982 C288.959579,10.7629004 291.435396,8.5034439 294.399845,8.5034439 C297.364295,8.5034439 299.840112,10.7629004 300.110446,13.7149982 M289.023757,80.8085784 L299.775933,80.8085784 L299.775933,26.9521219 L289.023757,26.9521219 L289.023757,80.8085784 Z M247.830975,71.8245377 C250.81604,71.8782215 253.747672,71.0287145 256.241566,69.3873777 C258.630939,67.7626044 260.542437,65.5643817 261.880485,62.8882845 C263.266322,60.1643999 263.935346,57.1537905 263.935346,53.8564564 C263.935346,50.5113349 263.266322,47.5007255 261.880485,44.7768409 C260.625078,42.1391424 258.675862,39.8925873 256.241566,38.2777476 C250.988159,35.0766324 244.387067,35.0766324 239.133659,38.2777476 C233.675522,41.553602 230.378656,47.491603 230.484131,53.8564564 C230.454725,60.2137907 233.778121,66.1159973 239.229234,69.3873777 C241.905331,71.0121511 244.772578,71.7767503 247.830975,71.7767503 L247.830975,71.8245377 Z M275.547696,26.9043345 L275.547696,80.8085784 L264.843307,80.8085784 L264.843307,72.5891369 C261.309007,78.6551018 254.753812,82.3172219 247.7354,82.146627 C232.178895,81.9402316 219.625369,69.3655008 219.44523,53.808669 C219.522785,38.1932832 232.120606,25.5316215 247.7354,25.3751361 C254.773746,25.2240274 261.33368,28.9254424 264.843307,35.028201 L264.843307,26.9043345 L275.595484,26.9043345 L275.547696,26.9043345 Z M129.031374,26.9043345 L139.78355,26.9043345 L139.78355,33.116703 C140.978236,31.5397172 142.172923,30.249456 143.367609,29.293707 C145.886177,27.2409236 149.055656,26.1561821 152.303862,26.2353102 C156.27022,26.2353102 159.758704,27.1910592 162.817101,28.9591948 C165.923285,30.7273305 168.551595,33.2600654 170.654243,36.509612 C174.442816,30.0451878 181.417138,26.1198495 188.909049,26.2353102 C193.401069,26.2353102 197.415215,27.382209 200.951486,29.6760066 C204.496266,31.960177 207.353799,35.1645789 209.218715,38.9467719 C211.225788,42.8175554 212.181537,47.0706385 212.181537,51.7060212 L212.181537,80.8085784 L201.429361,80.8085784 L201.429361,51.7060212 C201.429361,48.9821365 200.951486,46.4971891 199.900162,44.2989664 C198.961949,42.1670461 197.458051,40.3326211 195.551505,38.9945594 C193.640007,37.6565108 191.441784,37.0352739 188.909049,37.0352739 C184.041664,36.964205 179.610187,39.8305218 177.678998,44.2989664 C176.560963,46.6070973 175.988695,49.1414244 176.006437,51.7060212 L176.006437,80.8085784 L165.302049,80.8085784 L165.302049,51.7060212 C165.302049,49.0299239 164.776387,46.5449765 163.629488,44.2989664 C162.599089,42.1544049 161.015496,40.3233755 159.041893,38.9945594 C157.061206,37.6800487 154.728535,36.9969093 152.35165,37.0352739 C149.962277,37.0352739 147.859629,37.7042982 145.948131,39.0901343 C144.036633,40.4759704 142.60301,42.3396809 141.456111,44.6334785 C140.358663,46.9977704 139.80354,49.5774623 139.831338,52.1838957 L139.831338,80.8085784 L129.079161,80.8085784 L129.079161,26.9521219 L129.031374,26.9043345 Z" fill="#131B20"></path>
        <path d="M50.1342934,0.0477874502 C78.5678263,0.0477874502 101.74474,23.2247008 101.74474,51.7060212 C101.711069,57.734281 98.4359994,63.278008 93.1723484,66.21655 C87.9086974,69.155092 81.4709754,69.0337319 76.3218162,65.8988939 L76.0828789,65.7555315 L75.987304,65.9944688 C68.7905841,79.0403199 53.0143163,84.6975044 39.167334,79.197678 C25.3203517,73.6978517 17.7250177,58.7577961 21.4407097,44.3293297 C25.1564017,29.9008633 39.0232592,20.4878604 53.8043387,22.3604781 C68.5854182,24.2330957 79.6667767,36.8067927 79.6669377,51.7060212 C79.9299483,54.5049603 82.279544,56.6441199 85.0908133,56.6441199 C87.9020826,56.6441199 90.2516783,54.5049603 90.5146889,51.7060212 C90.5147045,29.3968011 72.4434979,11.3042085 50.1342934,11.2778383 C31.4217085,11.2441408 15.1314135,24.05655 10.7546817,42.2501255 C6.37795002,60.443701 15.0587097,79.2632641 31.7392585,87.7439046 C48.4198072,96.2245452 68.7404196,92.1497137 80.8616239,77.8935439 L89.463365,85.1572363 C79.6815751,96.7369308 65.2925494,103.415677 50.1342934,103.412044 C22.2027374,102.562604 -1.35820103e-13,79.6743843 -1.35820103e-13,51.7299149 C-1.35820103e-13,23.7854455 22.2027374,0.897226181 50.1342934,0.0477874502 L50.1342934,0.0477874502 Z M50.1342934,33.4034277 C43.3632061,33.0665177 36.9579978,36.4902998 33.476493,42.3075377 C29.9949882,48.1247756 30.0044573,55.3876186 33.5011191,61.1957585 C36.9977808,67.0038984 43.4118951,70.4109669 50.1820809,70.056402 C59.9396235,69.5453847 67.5854633,61.4781167 67.5727401,51.7072101 C67.559985,41.9363036 59.8931354,33.8889999 50.1342934,33.4034277 L50.1342934,33.4034277 Z M50.1342934,44.2989664 C54.2250968,44.2989664 57.5413482,47.6152178 57.5413482,51.7060212 C57.5413482,55.7968246 54.2250968,59.1130759 50.1342934,59.1130759 C46.04349,59.1130759 42.7272387,55.7968246 42.7272387,51.7060212 C42.7272387,47.6152178 46.04349,44.2989664 50.1342934,44.2989664 Z" fill="#F06B66"></path>
    </g>
</svg>

<svg preserveAspectRatio="xMidYMid" viewBox="0 0 512 108" xmlns="http://www.w3.org/2000/svg">
  <path fill="#131B20" d="M512 80.809h-10.752v-28.1a18.637 18.637 0 0 0-1.912-8.458 15.435 15.435 0 0 0-5.4-6.164 13.524 13.524 0 0 0-20.023 6.116 19.736 19.736 0 0 0-1.768 8.507v28.099h-10.752V26.952h10.752v7.503c1.912-2.867 4.253-5.066 6.93-6.643a17.685 17.685 0 0 1 8.983-2.39c4.684 0 8.841 1.243 12.425 3.633 3.632 2.437 6.452 5.734 8.459 9.844 1.959 4.11 3.01 8.65 3.058 13.572v28.338ZM397.31 26.952h10.752v28.004c0 3.058.622 5.925 1.912 8.458 1.29 2.58 3.106 4.635 5.352 6.117a13.476 13.476 0 0 0 15.005 0c2.15-1.482 3.823-3.537 5.066-6.117 1.194-2.533 1.768-5.4 1.768-8.458V26.952h10.752V80.81h-10.704v-7.55c-1.912 2.866-4.301 5.017-6.977 6.642-2.724 1.577-5.687 2.389-8.937 2.389-4.683 0-8.84-1.242-12.424-3.68a24.372 24.372 0 0 1-8.459-9.844 31.253 31.253 0 0 1-3.058-13.62V27l-.048-.048Zm-23.416 35.84a16.104 16.104 0 0 1-5.59 6.595 15.626 15.626 0 0 1-16.63 0 18.447 18.447 0 0 1-8.364-15.53c0-3.25.717-6.213 2.199-8.985 1.433-2.771 3.488-4.97 6.069-6.546a15.626 15.626 0 0 1 16.677 0c2.39 1.577 4.301 3.823 5.64 6.546 1.337 2.724 2.006 5.735 2.006 8.984 0 3.25-.669 6.213-2.007 8.984v-.047Zm2.724-35.84v7.933a20.357 20.357 0 0 0-7.025-6.882 18.733 18.733 0 0 0-9.653-2.485c-5.017 0-9.653 1.243-13.858 3.823a28.34 28.34 0 0 0-13.859 24.515 28.387 28.387 0 0 0 13.859 24.515c4.205 2.533 8.84 3.823 13.858 3.823 3.584 0 6.786-.812 9.653-2.485a20.549 20.549 0 0 0 7.025-6.88v9.413c0 2.772-.86 5.257-2.485 7.503-1.672 2.246-3.823 4.014-6.499 5.256a20.07 20.07 0 0 1-8.602 1.912 17.777 17.777 0 0 1-13.715-7.36h-12.09a28.911 28.911 0 0 0 15.053 15.818c3.44 1.577 7.025 2.39 10.752 2.39 4.922 0 9.558-1.147 13.907-3.345 4.3-2.199 7.837-5.257 10.465-9.176 2.628-3.87 3.966-8.22 3.966-12.998V27h-10.752v-.048Zm-63.414 53.809h10.705V0h-10.705v80.76ZM300.11 13.715a5.734 5.734 0 1 1-11.42 1.046 5.734 5.734 0 0 1 11.42-1.046m-11.086 67.094h10.752V26.952h-10.752V80.81Zm-41.193-8.984a14.814 14.814 0 0 0 8.41-2.438c2.39-1.624 4.301-3.823 5.64-6.499 1.385-2.724 2.054-5.734 2.054-9.032 0-3.345-.669-6.355-2.055-9.08a16.104 16.104 0 0 0-5.638-6.498 16.439 16.439 0 0 0-17.108 0 17.825 17.825 0 0 0-8.65 15.578 18.016 18.016 0 0 0 8.745 15.531c2.676 1.625 5.544 2.39 8.602 2.39v.048Zm27.717-44.92v53.904h-10.705v-8.22a19.258 19.258 0 0 1-17.108 9.558c-15.556-.207-28.11-12.781-28.29-28.338.078-15.616 12.676-28.277 28.29-28.434a19.258 19.258 0 0 1 17.108 9.653v-8.124h10.752-.047Zm-146.517 0h10.753v6.212c1.194-1.577 2.389-2.868 3.584-3.823a13.62 13.62 0 0 1 8.936-3.059c3.966 0 7.455.956 10.513 2.724 3.106 1.768 5.735 4.301 7.837 7.55a20.788 20.788 0 0 1 18.255-10.274c4.492 0 8.506 1.147 12.042 3.441a23.272 23.272 0 0 1 8.268 9.27c2.007 3.872 2.963 8.125 2.963 12.76v29.103h-10.753V51.706c0-2.724-.478-5.209-1.529-7.407a12.76 12.76 0 0 0-4.348-5.304c-1.912-1.338-4.11-1.96-6.643-1.96a12.042 12.042 0 0 0-11.23 7.264 16.726 16.726 0 0 0-1.673 7.407v29.103h-10.704V51.706c0-2.676-.526-5.161-1.673-7.407a13.38 13.38 0 0 0-4.587-5.304 11.756 11.756 0 0 0-6.69-1.96c-2.39 0-4.492.67-6.404 2.055-1.911 1.386-3.345 3.25-4.492 5.543a17.49 17.49 0 0 0-1.625 7.55V80.81H129.08V26.952l-.048-.048Z"/>
  <path fill="#F06B66" d="M50.134.048c28.434 0 51.61 23.177 51.61 51.658a16.726 16.726 0 0 1-25.422 14.193l-.24-.143-.095.238c-7.196 13.046-22.973 18.704-36.82 13.204-13.847-5.5-21.442-20.44-17.726-34.869 3.715-14.428 17.582-23.841 32.363-21.969 14.781 1.873 25.863 14.447 25.863 29.346a5.448 5.448 0 0 0 10.848 0c0-22.31-18.072-40.402-40.38-40.428-18.713-.034-35.004 12.779-39.38 30.972-4.377 18.194 4.304 37.013 20.984 45.494 16.68 8.48 37.001 4.406 49.123-9.85l8.601 7.263a51.467 51.467 0 0 1-39.329 18.255C22.203 102.562 0 79.674 0 51.73 0 23.785 22.203.897 50.134.048Zm0 33.355a18.35 18.35 0 1 0 .048 36.653c9.758-.51 17.403-8.578 17.39-18.349-.012-9.77-7.679-17.818-17.438-18.304Zm0 10.896a7.407 7.407 0 1 1 0 14.814 7.407 7.407 0 0 1 0-14.814Z"/>
</svg>
